packages/icons/src/components/Logo/assets/dark/nextcloud.svg

<svg width="20" height="20" viewBox="0 0 20 20" fill="none" xmlns="http://www.w3.org/2000/svg">
<path d="M9.99609 5.44141C7.92659 5.44141 6.17337 6.8393 5.6189 8.73699C5.14252 7.74129 4.12729 7.04234 2.95588 7.04234C1.33542 7.03844 0 8.37385 0 9.99822C0 11.6226 1.33542 12.958 2.95978 12.958C4.1312 12.958 5.14252 12.2591 5.6228 11.2634C6.17337 13.161 7.9305 14.5589 10 14.5589C12.0695 14.5589 13.8227 13.161 14.3772 11.2634C14.8536 12.2591 15.8688 12.958 17.0402 12.958C18.6646 12.958 20 11.6226 20 9.99822C20 8.37385 18.6646 7.03844 17.0402 7.03844C15.8688 7.03844 14.8575 7.73738 14.3772 8.73309C13.8188 6.8393 12.0656 5.44141 9.99609 5.44141ZM9.99609 7.19853C11.5541 7.19853 12.7958 8.44023 12.7958 9.99822C12.7958 11.5562 11.5541 12.7979 9.99609 12.7979C8.43811 12.7979 7.19641 11.5562 7.19641 9.99822C7.19641 8.44023 8.43811 7.19853 9.99609 7.19853ZM2.95978 8.79947C3.63139 8.79947 4.15853 9.32661 4.15853 9.99822C4.15853 10.6698 3.63139 11.197 2.95978 11.197C2.28817 11.197 1.76103 10.6698 1.76103 9.99822C1.76103 9.32661 2.28426 8.79947 2.95978 8.79947ZM17.0324 8.79947C17.704 8.79947 18.2312 9.32661 18.2312 9.99822C18.2312 10.6698 17.704 11.197 17.0324 11.197C16.3608 11.197 15.8337 10.6698 15.8337 9.99822C15.8337 9.32661 16.3608 8.79947 17.0324 8.79947Z" fill="white"/>
</svg>

<svg xmlns="http://www.w3.org/2000/svg" width="20" height="20" fill="none" viewBox="0 0 20 20">
    <path fill="#fff" d="M9.996 5.441c-2.07 0-3.823 1.398-4.377 3.296a2.97 2.97 0 0 0-2.663-1.695A2.966 2.966 0 0 0 0 9.998a2.973 2.973 0 0 0 2.96 2.96c1.171 0 2.183-.699 2.663-1.695.55 1.898 2.308 3.296 4.377 3.296s3.823-1.398 4.377-3.296a2.97 2.97 0 0 0 2.663 1.695A2.973 2.973 0 0 0 20 9.998a2.973 2.973 0 0 0-2.96-2.96c-1.171 0-2.182.7-2.663 1.695-.558-1.894-2.311-3.292-4.38-3.292m0 1.758c1.558 0 2.8 1.241 2.8 2.8a2.785 2.785 0 0 1-2.8 2.799 2.785 2.785 0 0 1-2.8-2.8c0-1.558 1.242-2.8 2.8-2.8m-7.036 1.6c.671 0 1.199.528 1.199 1.2 0 .67-.528 1.198-1.2 1.198a1.187 1.187 0 0 1-1.198-1.199c0-.671.523-1.199 1.199-1.199m14.072 0c.672 0 1.2.528 1.2 1.2 0 .67-.528 1.198-1.2 1.198a1.187 1.187 0 0 1-1.198-1.199c0-.671.527-1.199 1.198-1.199"/>
</svg>
